public/assets/bell_icon.svg

<svg xmlns="http://www.w3.org/2000/svg" viewBox="0 0 19 21">
    <defs/>
    <path d="M9.18817 21C7.7395 21 6.5644 19.8249 6.5644 18.375h5.2475c0 1.4499-1.1751 2.625-2.62373 2.625zM.353811 14.8596c.792419-.8515 2.275139-2.1325 2.275139-6.32835 0-3.18691 2.23453-5.73809 5.24754-6.36398V1.3125C7.87649.587754 8.46383 0 9.18817 0s1.31173.587754 1.31173 1.3125v.85477c3.013.62589 5.2475 3.17707 5.2475 6.36398 0 4.19585 1.4827 5.47685 2.2751 6.32835.2461.2645.3552.5807.3532.8904-.0045.6727-.5324 1.3125-1.3166 1.3125H1.31727c-.784219 0-1.31249972-.6398-1.31660243-1.3125-.0020504-.3097.10705043-.6263.35314343-.8904z"/>
</svg>

<svg width="19" height="21" viewBox="0 0 19 21" fill="none" xmlns="http://www.w3.org/2000/svg">
<path d="M9.18817 21C7.7395 21 6.5644 19.8249 6.5644 18.375H11.8119C11.8119 19.8249 10.6368 21 9.18817 21ZM0.353811 14.8596C1.14623 14.0081 2.62895 12.7271 2.62895 8.53125C2.62895 5.34434 4.86348 2.79316 7.87649 2.16727V1.3125C7.87649 0.587754 8.46383 0 9.18817 0C9.91251 0 10.4999 0.587754 10.4999 1.3125V2.16727C13.5129 2.79316 15.7474 5.34434 15.7474 8.53125C15.7474 12.7271 17.2301 14.0081 18.0225 14.8596C18.2686 15.1241 18.3777 15.4403 18.3757 15.75C18.3712 16.4227 17.8433 17.0625 17.0591 17.0625H1.31727C0.533051 17.0625 0.00477028 16.4227 0.000667572 15.75C-0.00138283 15.4403 0.107718 15.1237 0.353811 14.8596Z" fill="black"/>
</svg>
